img/svg/software.svg

<svg width="120" height="120" viewBox="0 0 120 120" fill="none" xmlns="http://www.w3.org/2000/svg">
<path d="M114.587 19.6875H90C89.0286 19.6875 88.2422 20.4739 88.2422 21.4453C88.2422 22.4167 89.0286 23.2031 90 23.2031H114.587C115.634 23.2031 116.484 24.0536 116.484 25.1001V92.7905C116.484 93.837 115.634 94.6875 114.587 94.6875H5.4126C4.36615 94.6875 3.51562 93.837 3.51562 92.7905V25.1001C3.51562 24.0536 4.36615 23.2031 5.4126 23.2031H44.0332V26.7188H8.78906C7.81769 26.7188 7.03125 27.5052 7.03125 28.4766V74.9222C7.03125 75.8926 7.81769 76.68 8.78906 76.68C9.76044 76.68 10.5469 75.8926 10.5469 74.9222V30.2344H44.0332V39.6643L36.5076 43.2596C35.907 43.5471 35.5078 44.1678 35.5078 44.8462V73.5132C35.5078 74.1907 35.8969 74.8077 36.5076 75.0998L59.2419 85.9616C59.7345 86.1932 60.2902 86.1813 60.7581 85.9616L73.5388 79.855C74.415 79.4366 74.7858 78.3865 74.3674 77.5113C73.949 76.6351 72.8979 76.2643 72.0227 76.6827L61.7578 81.5872V56.8158L80.9766 47.634V72.4054L78.3655 73.6523C77.4893 74.0707 77.1185 75.1208 77.5369 75.9961C77.9553 76.8723 79.0054 77.243 79.8807 76.8246L83.4924 75.0998C84.1031 74.8077 84.4922 74.1907 84.4922 73.5132V44.8462C84.4922 44.176 84.1022 43.5516 83.4924 43.2596L75.9668 39.6643V30.2344H109.453V87.6562H10.5469V82.4222C10.5469 81.4508 9.76044 80.6644 8.78906 80.6644C7.81769 80.6644 7.03125 81.4508 7.03125 82.4222V89.4141C7.03125 90.3854 7.81769 91.1719 8.78906 91.1719H111.211C112.182 91.1719 112.969 90.3854 112.969 89.4141V28.4766C112.969 27.5052 112.182 26.7188 111.211 26.7188H75.9668V23.2031H82.5C83.4714 23.2031 84.2578 22.4167 84.2578 21.4453C84.2578 20.4739 83.4714 19.6875 82.5 19.6875H75.9668V16.1719H91.7285C92.6999 16.1719 93.4863 15.3854 93.4863 14.4141V10.2448C95.5325 9.51874 97.002 7.565 97.002 5.27344C97.002 2.36572 94.6362 0 91.7285 0C88.8208 0 86.4551 2.36572 86.4551 5.27344C86.4551 7.565 87.9245 9.51874 89.9707 10.2448V12.6562H74.209C73.2376 12.6562 72.4512 13.4427 72.4512 14.4141V19.6875H61.7578V10.2448C63.804 9.51874 65.2734 7.565 65.2734 5.27344C65.2734 2.36572 62.9077 0 60 0C57.0923 0 54.7266 2.36572 54.7266 5.27344C54.7266 7.565 56.196 9.51874 58.2422 10.2448V19.6875H47.5488V14.4141C47.5488 13.4427 46.7624 12.6562 45.791 12.6562H30.0293V10.2448C32.0755 9.51874 33.5449 7.565 33.5449 5.27344C33.5449 2.36572 31.1792 0 28.2715 0C25.3638 0 22.998 2.36572 22.998 5.27344C22.998 7.565 24.4675 9.51874 26.5137 10.2448V14.4141C26.5137 15.3854 27.3001 16.1719 28.2715 16.1719H44.0332V19.6875H5.4126C2.42798 19.6875 0 22.1155 0 25.1001V92.7905C0 95.7751 2.42798 98.2031 5.4126 98.2031H43.5223C42.8421 104.651 38.5785 108.417 37.2345 109.453H29.7656C26.8579 109.453 24.4922 111.819 24.4922 114.727C24.4922 117.634 26.8579 120 29.7656 120H90.2344C93.1421 120 95.5078 117.634 95.5078 114.727C95.5078 111.819 93.1421 109.453 90.2344 109.453H82.7701C81.4435 108.42 77.1652 104.621 76.4795 98.2031H114.587C117.572 98.2031 120 95.7751 120 92.7905V25.1001C120 22.1155 117.572 19.6875 114.587 19.6875ZM91.7285 3.51562C92.6981 3.51562 93.4863 4.30389 93.4863 5.27344C93.4863 6.24298 92.6981 7.03125 91.7285 7.03125C90.759 7.03125 89.9707 6.24298 89.9707 5.27344C89.9707 4.30389 90.759 3.51562 91.7285 3.51562ZM60 3.51562C60.9695 3.51562 61.7578 4.30389 61.7578 5.27344C61.7578 6.24298 60.9695 7.03125 60 7.03125C59.0305 7.03125 58.2422 6.24298 58.2422 5.27344C58.2422 4.30389 59.0305 3.51562 60 3.51562ZM28.2715 3.51562C29.241 3.51562 30.0293 4.30389 30.0293 5.27344C30.0293 6.24298 29.241 7.03125 28.2715 7.03125C27.3019 7.03125 26.5137 6.24298 26.5137 5.27344C26.5137 4.30389 27.3019 3.51562 28.2715 3.51562ZM47.5488 30.2344H58.2422V32.8757L47.5488 37.9852V30.2344ZM78.6566 44.8462L60 53.7589L41.3434 44.8462L60 35.9326L78.6566 44.8462ZM39.0234 47.634L58.2422 56.8158V81.5872L39.0234 72.4054V47.634ZM72.4512 37.9852L61.7578 32.8757V30.2344H72.4512V37.9852ZM72.4512 23.2031V26.7188H61.7578V23.2031H72.4512ZM58.2422 23.2031V26.7188H47.5488V23.2031H58.2422ZM91.9922 114.727C91.9922 115.696 91.2039 116.484 90.2344 116.484H29.7656C28.7961 116.484 28.0078 115.696 28.0078 114.727C28.0078 113.757 28.7961 112.969 29.7656 112.969H90.2344C91.2039 112.969 91.9922 113.757 91.9922 114.727ZM77.7283 109.453H42.2717C44.3326 107.046 46.6187 103.295 47.0572 98.2031H72.9428C73.3813 103.295 75.6674 107.046 77.7283 109.453Z" fill="black"/>
</svg>

<svg width="120" height="120" viewBox="0 0 120 120" fill="none" xmlns="http://www.w3.org/2000/svg"><path d="M114.587 19.688H90a1.757 1.757 0 100 3.515h24.587c1.047 0 1.897.85 1.897 1.897v67.69c0 1.047-.85 1.897-1.897 1.897H5.413a1.899 1.899 0 01-1.897-1.897V25.1c0-1.046.85-1.897 1.897-1.897h38.62v3.516H8.79c-.971 0-1.758.786-1.758 1.758v46.445a1.758 1.758 0 103.516 0V30.234h33.486v9.43l-7.525 3.596c-.601.287-1 .908-1 1.586v28.667c0 .678.389 1.295 1 1.587l22.734 10.862c.492.231 1.048.22 1.516 0l12.78-6.107a1.758 1.758 0 10-1.515-3.172l-10.265 4.904V56.816l19.219-9.182v24.771l-2.612 1.247a1.758 1.758 0 001.516 3.173l3.611-1.725c.611-.292 1-.91 1-1.587V44.846c0-.67-.39-1.294-1-1.586l-7.525-3.596v-9.43h33.486v57.422H10.547v-5.234a1.757 1.757 0 10-3.516 0v6.992c0 .971.787 1.758 1.758 1.758h102.422c.971 0 1.758-.787 1.758-1.758V28.477c0-.972-.787-1.758-1.758-1.758H75.967v-3.516H82.5a1.757 1.757 0 100-3.515h-6.533v-3.516h15.761c.972 0 1.758-.787 1.758-1.758v-4.17a5.282 5.282 0 003.516-4.97A5.28 5.28 0 0091.729 0a5.28 5.28 0 00-5.274 5.273 5.282 5.282 0 003.516 4.972v2.411H74.209c-.971 0-1.758.787-1.758 1.758v5.274H61.758v-9.443a5.282 5.282 0 003.515-4.972A5.28 5.28 0 0060 0a5.28 5.28 0 00-5.273 5.273 5.282 5.282 0 003.515 4.972v9.443H47.55v-5.274c0-.971-.787-1.758-1.758-1.758H30.029v-2.411a5.282 5.282 0 003.516-4.972A5.28 5.28 0 0028.27 0a5.28 5.28 0 00-5.273 5.273 5.282 5.282 0 003.516 4.972v4.17c0 .97.786 1.757 1.758 1.757h15.761v3.515H5.413A5.419 5.419 0 000 25.1v67.69a5.419 5.419 0 005.413 5.413h38.11c-.68 6.448-4.945 10.214-6.289 11.25h-7.468a5.28 5.28 0 00-5.274 5.274A5.28 5.28 0 0029.766 120h60.468a5.28 5.28 0 005.274-5.273 5.28 5.28 0 00-5.274-5.274H82.77c-1.326-1.033-5.605-4.832-6.29-11.25h38.107A5.419 5.419 0 00120 92.79V25.1a5.419 5.419 0 00-5.413-5.413zM91.728 3.515c.97 0 1.758.788 1.758 1.757a1.76 1.76 0 01-1.758 1.758 1.76 1.76 0 01-1.757-1.758c0-.97.788-1.757 1.757-1.757zM60 3.516c.97 0 1.758.788 1.758 1.757A1.76 1.76 0 0160 7.031a1.76 1.76 0 01-1.758-1.758c0-.97.789-1.757 1.758-1.757zm-31.729 0c.97 0 1.758.788 1.758 1.757a1.76 1.76 0 01-1.758 1.758 1.76 1.76 0 01-1.757-1.758c0-.97.788-1.757 1.758-1.757zM47.55 30.234h10.693v2.642l-10.693 5.11v-7.752zm31.108 14.612L60 53.76l-18.657-8.913L60 35.933l18.657 8.913zm-39.634 2.788l19.22 9.182v24.771l-19.22-9.182V47.634zm33.428-9.649l-10.693-5.11v-2.64H72.45v7.75zm0-14.782v3.516H61.758v-3.516H72.45zm-14.209 0v3.516H47.55v-3.516h10.693zm33.75 91.524a1.76 1.76 0 01-1.758 1.757H29.766a1.76 1.76 0 01-1.758-1.757c0-.97.788-1.758 1.758-1.758h60.468c.97 0 1.758.788 1.758 1.758zm-14.264-5.274H42.272c2.06-2.407 4.347-6.158 4.785-11.25h25.886c.438 5.092 2.724 8.843 4.785 11.25z" fill="#000"/></svg>
